svg/cloud_circle.svg

<svg xmlns="http://www.w3.org/2000/svg" viewBox="0 0 24 24"><path d="M16.5 16H8a3 3 0 0 1-3-3 3 3 0 0 1 3-3h.14c.44-1.72 1.99-3 3.86-3a4 4 0 0 1 4 4h.5a2.5 2.5 0 0 1 2.5 2.5 2.5 2.5 0 0 1-2.5 2.5M12 2A10 10 0 0 0 2 12a10 10 0 0 0 10 10 10 10 0 0 0 10-10A10 10 0 0 0 12 2"/></svg>

<?xml version="1.0" encoding="UTF-8"?><!DOCTYPE svg PUBLIC "-//W3C//DTD SVG 1.1//EN" "http://www.w3.org/Graphics/SVG/1.1/DTD/svg11.dtd"><svg xmlns="http://www.w3.org/2000/svg" xmlns:xlink="http://www.w3.org/1999/xlink" version="1.1" id="mdi-cloud-circle" width="24" height="24" viewBox="0 0 24 24"><path d="M16.5,16H8A3,3 0 0,1 5,13A3,3 0 0,1 8,10C8.05,10 8.09,10 8.14,10C8.58,8.28 10.13,7 12,7A4,4 0 0,1 16,11H16.5A2.5,2.5 0 0,1 19,13.5A2.5,2.5 0 0,1 16.5,16M12,2A10,10 0 0,0 2,12A10,10 0 0,0 12,22A10,10 0 0,0 22,12A10,10 0 0,0 12,2Z" /></svg>
